mono-glyphs/langtime-w.svg

<svg xmlns="http://www.w3.org/2000/svg" width="1024" height="1024" fill="none" viewBox="0 0 1024 1024">
  <path fill="#fff" d="M244 663c-34.667-8-66.917-21.75-96.75-41.25s-55.667-42.917-77.5-70.25-38.917-57.667-51.25-91C6.167 427.167 0 392.667 0 357c0-45 8.167-87.167 24.5-126.5S63.333 156.75 92 127.25 154.5 74.5 193.5 57.5 274.667 32 320 32c44.333 0 85.917 8.333 124.75 25s72.75 39.5 101.75 68.5 51.833 62.917 68.5 101.75 25 80.417 25 124.75h-64v-5c0-34.667-6.917-67.25-20.75-97.75s-32.5-57.083-56-79.75-50.667-40.583-81.5-53.75C386.917 102.583 354.333 96 320 96s-66.917 6.583-97.75 19.75-58 31.083-81.5 53.75-42.167 49.25-56 79.75C70.917 279.75 64 312.333 64 347v9c0 29.333 5.25 57.667 15.75 85s25 52.083 43.5 74.25 40.167 41 65 56.5S240 597.667 269 603l-25 60Zm44-247c-8.667 0-16.167-3.167-22.5-9.5-6.333-6.333-9.5-13.833-9.5-22.5V192c0-8.667 3.167-16.167 9.5-22.5 6.333-6.333 13.833-9.5 22.5-9.5s16.167 3.167 22.5 9.5c6.333 6.333 9.5 13.833 9.5 22.5v160h96c8.667 0 16.167 3.167 22.5 9.5 6.333 6.333 9.5 13.833 9.5 22.5s-3.167 16.167-9.5 22.5c-6.333 6.333-13.833 9.5-22.5 9.5H288Zm224 128v-96c0-8.667 3.167-16.167 9.5-22.5 6.333-6.333 13.833-9.5 22.5-9.5h192c0-2.667-.083-5.417-.25-8.25a148.76 148.76 0 0 1-.25-8.75c0-5.667.333-11.25 1-16.75s2.083-10.5 4.25-15 5.417-8.167 9.75-11S760.667 352 768 352s13.083 1.417 17.25 4.25 7.333 6.5 9.5 11 3.583 9.5 4.25 15c.667 5.5 1 11.083 1 16.75v17h192c8.67 0 16.17 3.167 22.5 9.5 6.33 6.333 9.5 13.833 9.5 22.5v96c0 8.667-3.17 16.167-9.5 22.5-6.33 6.333-13.83 9.5-22.5 9.5-8.667 0-16.167-3.167-22.5-9.5-6.333-6.333-9.5-13.833-9.5-22.5v-64H576v64c0 8.667-3.167 16.167-9.5 22.5-6.333 6.333-13.833 9.5-22.5 9.5s-16.167-3.167-22.5-9.5c-6.333-6.333-9.5-13.833-9.5-22.5Zm224 384c-8.667 0-16.167-3.167-22.5-9.5-6.333-6.333-9.5-13.833-9.5-22.5 0-7.333 1.417-13.083 4.25-17.25s6.5-7.333 11-9.5 9.5-3.583 15-4.25c5.5-.667 11.083-1 16.75-1h17V736H608c-8.667 0-16.167-3.167-22.5-9.5-6.333-6.333-9.5-13.833-9.5-22.5s3.167-16.167 9.5-22.5c6.333-6.333 13.833-9.5 22.5-9.5h160c0-6.333 1.833-12.333 5.5-18l30.5-46H672c-8.667 0-16.167-3.167-22.5-9.5-6.333-6.333-9.5-13.833-9.5-22.5s3.167-16.167 9.5-22.5c6.333-6.333 13.833-9.5 22.5-9.5h192c8.667 0 16.167 3.167 22.5 9.5 6.333 6.333 9.5 13.833 9.5 22.5 0 6.333-1.833 12.167-5.5 17.5l-52 78.5H992c8.67 0 16.17 3.167 22.5 9.5 6.33 6.333 9.5 13.833 9.5 22.5s-3.17 16.167-9.5 22.5c-6.33 6.333-13.83 9.5-22.5 9.5H832v128c0 9-1.667 17.333-5 25-3.333 7.667-7.917 14.417-13.75 20.25S800.667 919.667 793 923s-16 5-25 5h-32Zm-528 32c0-4 .667-7.833 2-11.5 4-11 8-21.833 12-32.5l24.5-63.5c4-11 8-21.833 12-32.5L354 564.5c2.333-6.333 6.25-11 11.75-14S377.333 546 384 546s12.75 1.5 18.25 4.5 9.417 7.667 11.75 14L509.5 820c4 10.667 8 21.5 12 32.5L546 916c4 10.667 8 21.5 12 32.5 1.333 3.667 2 7.5 2 11.5 0 9-3.083 16.583-9.25 22.75C544.583 988.917 537 992 528 992c-7 0-13.083-1.833-18.25-5.5s-9.083-8.833-11.75-15.5l-40-107H310l-40 107c-2.333 6.333-6.25 11.417-11.75 15.25S246.667 992 240 992c-9 0-16.583-3.083-22.75-9.25C211.083 976.583 208 969 208 960Zm176-293-50 133h100l-50-133Z"/>
</svg>

<svg width="1024" height="1024" viewBox="0 0 1024 1024" fill="none" xmlns="http://www.w3.org/2000/svg">
<mask id="mask0_47_1393" style="mask-type:luminance" maskUnits="userSpaceOnUse" x="0" y="32" width="1024" height="960">
<path d="M1024 32H0V992H1024V32Z" fill="white"/>
</mask>
<g mask="url(#mask0_47_1393)">
<path d="M244 663C209.333 655 177.083 641.25 147.25 621.75C117.417 602.25 91.5833 578.833 69.75 551.5C47.9167 524.167 30.8333 493.833 18.5 460.5C6.16667 427.167 0 392.667 0 357C0 312 8.16667 269.833 24.5 230.5C40.8333 191.167 63.3333 156.75 92 127.25C120.667 97.75 154.5 74.5 193.5 57.5C232.5 40.5 274.667 32 320 32C364.333 32 405.917 40.3334 444.75 57C483.583 73.6667 517.5 96.5 546.5 125.5C575.5 154.5 598.333 188.417 615 227.25C631.667 266.083 640 307.667 640 352H576V347C576 312.333 569.083 279.75 555.25 249.25C541.417 218.75 522.75 192.167 499.25 169.5C475.75 146.833 448.583 128.917 417.75 115.75C386.917 102.583 354.333 96.0001 320 96C285.667 96.0001 253.083 102.583 222.25 115.75C191.417 128.917 164.25 146.833 140.75 169.5C117.25 192.167 98.5833 218.75 84.75 249.25C70.9167 279.75 64 312.333 64 347V356C64 385.333 69.25 413.667 79.75 441C90.25 468.333 104.75 493.083 123.25 515.25C141.75 537.417 163.417 556.25 188.25 571.75C213.083 587.25 240 597.667 269 603L244 663ZM288 416C279.333 416 271.833 412.833 265.5 406.5C259.167 400.167 256 392.667 256 384V192C256 183.333 259.167 175.833 265.5 169.5C271.833 163.167 279.333 160 288 160C296.667 160 304.167 163.167 310.5 169.5C316.833 175.833 320 183.333 320 192V352H416C424.667 352 432.167 355.167 438.5 361.5C444.833 367.833 448 375.333 448 384C448 392.667 444.833 400.167 438.5 406.5C432.167 412.833 424.667 416 416 416H288ZM512 544V448C512 439.333 515.167 431.833 521.5 425.5C527.833 419.167 535.333 416 544 416H736C736 413.333 735.917 410.583 735.75 407.75C735.583 404.917 735.5 402 735.5 399C735.5 393.333 735.833 387.75 736.5 382.25C737.167 376.75 738.583 371.75 740.75 367.25C742.917 362.75 746.167 359.083 750.5 356.25C754.833 353.417 760.667 352 768 352C775.333 352 781.083 353.417 785.25 356.25C789.417 359.083 792.583 362.75 794.75 367.25C796.917 371.75 798.333 376.75 799 382.25C799.667 387.75 800 393.333 800 399V416H992C1000.67 416 1008.17 419.167 1014.5 425.5C1020.83 431.833 1024 439.333 1024 448V544C1024 552.667 1020.83 560.167 1014.5 566.5C1008.17 572.833 1000.67 576 992 576C983.333 576 975.833 572.833 969.5 566.5C963.167 560.167 960 552.667 960 544V480H576V544C576 552.667 572.833 560.167 566.5 566.5C560.167 572.833 552.667 576 544 576C535.333 576 527.833 572.833 521.5 566.5C515.167 560.167 512 552.667 512 544ZM736 928C727.333 928 719.833 924.833 713.5 918.5C707.167 912.167 704 904.667 704 896C704 888.667 705.417 882.917 708.25 878.75C711.083 874.583 714.75 871.417 719.25 869.25C723.75 867.083 728.75 865.667 734.25 865C739.75 864.333 745.333 864 751 864H768V736H608C599.333 736 591.833 732.833 585.5 726.5C579.167 720.167 576 712.667 576 704C576 695.333 579.167 687.833 585.5 681.5C591.833 675.167 599.333 672 608 672H768C768 665.667 769.833 659.667 773.5 654L804 608H672C663.333 608 655.833 604.833 649.5 598.5C643.167 592.167 640 584.667 640 576C640 567.333 643.167 559.833 649.5 553.5C655.833 547.167 663.333 544 672 544H864C872.667 544 880.167 547.167 886.5 553.5C892.833 559.833 896 567.333 896 576C896 582.333 894.167 588.167 890.5 593.5L838.5 672H992C1000.67 672 1008.17 675.167 1014.5 681.5C1020.83 687.833 1024 695.333 1024 704C1024 712.667 1020.83 720.167 1014.5 726.5C1008.17 732.833 1000.67 736 992 736H832V864C832 873 830.333 881.333 827 889C823.667 896.667 819.083 903.417 813.25 909.25C807.417 915.083 800.667 919.667 793 923C785.333 926.333 777 928 768 928H736ZM208 960C208 956 208.667 952.167 210 948.5C214 937.5 218 926.667 222 916L246.5 852.5C250.5 841.5 254.5 830.667 258.5 820L354 564.5C356.333 558.167 360.25 553.5 365.75 550.5C371.25 547.5 377.333 546 384 546C390.667 546 396.75 547.5 402.25 550.5C407.75 553.5 411.667 558.167 414 564.5L509.5 820C513.5 830.667 517.5 841.5 521.5 852.5L546 916C550 926.667 554 937.5 558 948.5C559.333 952.167 560 956 560 960C560 969 556.917 976.583 550.75 982.75C544.583 988.917 537 992 528 992C521 992 514.917 990.167 509.75 986.5C504.583 982.833 500.667 977.667 498 971L458 864H310L270 971C267.667 977.333 263.75 982.417 258.25 986.25C252.75 990.083 246.667 992 240 992C231 992 223.417 988.917 217.25 982.75C211.083 976.583 208 969 208 960ZM384 667L334 800H434L384 667Z" fill="white"/>
</g>
</svg>
